X:89
T:My Ain Fireside
C:arr. Carlo Minasi
M:6/8
L:1/8
B:Chappell's One Hundred Scotch Melodies
B:Arranged for the Concertina by Carlo Minasi
Q:"Andante  "3/8=80
Z:Peter Dunk 2012
K:C
!p!(c/d/)|([eG]>[dF][cE]) ([AF]>Bc)|\
([GE]>[AF][cE]) [d2G2] (c/d/)|\
([eG]>[dF][cE]) ([AF]>Bc)|\
([GE]>[AF][cAF]) [c2G2E2]|
%
c|([fcA]>g[fdB]) ([ec]ge)|\
([dAF]>ef/e/) {e}H[d2B2G2] (g/f/)|\
(e>dc) ([AF]>Bc)|([GE]>[AF][cAF]) [c2G2E2]|
%
!mf!(c/d/)|([eG]>[dF][cE]) [A2F2] c|\
([GE]>[AF][cE]) [d2G2] (g/f/)|\
e>dc ([AF]>Bc)|([GE]>[AF][cAF]) [c2G2E2]||

